src/lib/packages/icons/src/assets/filled/bank.svg

<svg width="24" height="24" viewBox="0 0 24 24" fill="none" xmlns="http://www.w3.org/2000/svg">
<path d="M21 20.25H20V19C20 18.333 19.667 18 19 18H18.75V11H19C19.667 11 20 10.667 20 10V7.44096C20 7.06196 19.786 6.71617 19.447 6.54717L12.671 3.15898C12.249 2.94798 11.752 2.94798 11.329 3.15898L4.55298 6.54717C4.21398 6.71617 4 7.06296 4 7.44096V10C4 10.667 4.333 11 5 11H5.25V18H5C4.333 18 4 18.333 4 19V20.25H3C2.586 20.25 2.25 20.586 2.25 21C2.25 21.414 2.586 21.75 3 21.75H21C21.414 21.75 21.75 21.414 21.75 21C21.75 20.586 21.414 20.25 21 20.25ZM12 5.75005C12.69 5.75005 13.25 6.31005 13.25 7.00005C13.25 7.69005 12.69 8.25005 12 8.25005C11.31 8.25005 10.75 7.69005 10.75 7.00005C10.75 6.31005 11.31 5.75005 12 5.75005ZM6.75 18V11H9.25V18H6.75ZM10.75 18V11H13.25V18H10.75ZM14.75 18V11H17.25V18H14.75Z" fill="currentColor"/>
</svg>

<svg xmlns="http://www.w3.org/2000/svg" width="24" height="24" fill="none"><path fill="currentColor" d="M21 20.25h-1V19c0-.667-.333-1-1-1h-.25v-7H19c.667 0 1-.333 1-1V7.441a.998.998 0 0 0-.553-.894L12.671 3.16a1.502 1.502 0 0 0-1.342 0L4.553 6.547A1 1 0 0 0 4 7.441V10c0 .667.333 1 1 1h.25v7H5c-.667 0-1 .333-1 1v1.25H3a.75.75 0 0 0 0 1.5h18a.75.75 0 0 0 0-1.5Zm-9-14.5a1.25 1.25 0 1 1 0 2.501 1.25 1.25 0 0 1 0-2.5ZM6.75 18v-7h2.5v7h-2.5Zm4 0v-7h2.5v7h-2.5Zm4 0v-7h2.5v7h-2.5Z"/></svg>
